X:5955
T:Gan Ainm
R:Reel
S:
H:
N:
D:
Z:Adrian Scahill
M:4/4
L:1/8
K:C
A|BGGA BGdG|BGG2 F3A|BGGA BGdG|1 BGA2 G3A:|2 BGA2 G2Bc||\
dgga dedc|Bcde f2ef|dgga dedc|BG (3ABA G2Bc:||


